assets/Mending heart/Flat/mending_heart_flat.svg

<svg width="32" height="32" viewBox="0 0 32 32" fill="none" xmlns="http://www.w3.org/2000/svg">
<path d="M21.0163 5.15966C19.1428 5.48746 17.5594 7.06018 16.6978 8.09396C16.3495 8.51195 15.6505 8.51195 15.3022 8.09396C14.4406 7.06018 12.8572 5.48746 10.9837 5.15966C6.26039 4.32908 3.40517 6.85743 2.40485 10.0008L5.60146 14.2955L6.09508 21.6282C9.14914 25.3465 13.0775 28.3459 14.9355 29.6684C15.577 30.125 16.4229 30.1248 17.0642 29.668C19.646 27.8288 26.2261 22.7486 28.9042 17.0021L27.3547 13.195L26.5453 5.99222C25.1352 5.13927 23.2927 4.75936 21.0163 5.15966Z" fill="#F92F60"/>
<path d="M29.5949 10H2.40511C1.92106 11.5205 1.87107 13.185 2.25363 14.6829C2.45195 15.463 2.73767 16.2373 3.0923 17H28.9052C29.2605 16.2373 29.547 15.463 29.7464 14.6829C30.1289 13.185 30.0789 11.5205 29.5949 10Z" fill="#E6E6E6"/>
<path d="M2.86942 16.4973L26.5285 5.98218C28.3793 7.09408 29.4886 9.01902 29.8599 11.0675L6.0959 21.6293C4.77942 20.0266 3.62532 18.2904 2.86942 16.4973Z" fill="#F4F4F4"/>
</svg>

<svg xmlns="http://www.w3.org/2000/svg" width="32" height="32" fill="none"><path fill="#F92F60" d="M21.016 5.16c-1.873.327-3.457 1.9-4.318 2.934-.349.418-1.048.418-1.396 0-.861-1.034-2.445-2.607-4.318-2.934C6.26 4.33 3.405 6.857 2.404 10l3.197 4.296.494 7.332c3.054 3.718 6.983 6.718 8.84 8.04a1.825 1.825 0 0 0 2.13 0c2.581-1.84 9.161-6.92 11.84-12.666l-1.55-3.807-.81-7.203c-1.41-.853-3.252-1.233-5.529-.832Z"/><path fill="#E6E6E6" d="M29.595 10H2.405a8.617 8.617 0 0 0-.151 4.683c.198.78.484 1.554.838 2.317h25.813a13.31 13.31 0 0 0 .841-2.317A8.618 8.618 0 0 0 29.595 10Z"/><path fill="#F4F4F4" d="M2.87 16.497 26.528 5.982c1.85 1.112 2.96 3.037 3.33 5.086L6.097 21.629c-1.317-1.602-2.47-3.339-3.227-5.132Z"/></svg>
